X: 127
T: Unicorn
M:4/4
R:reel
L:1/8
Z:Alf Warnock - alf0@rogers.com
K:G
de2|"G"d2Bc BB2c|"Am"B2A2 c3d|"D7"fffg ffed|"G"g2B2 d4|
"G"d2de dB2BA|"Am"A2c2 e3e|"D7"d2de d2BB|A2B2 "G"G2dd|
"G"d2Bc BB2c|"Am"B2A2 c3d|"D7"fff2 eed2|"G"g2B2 d4|
"G"d2de d2B2|"Am"A2c2 e3e|"D7"d2de d2B2|A2B2 "G"G4|]


